img/icon-btn-pause.svg

<svg width="30" height="30" viewBox="0 0 30 30" fill="none" xmlns="http://www.w3.org/2000/svg">
<path fill-rule="evenodd" clip-rule="evenodd" d="M13.8729 0.0174501C13.7599 0.0305864 13.4167 0.0699367 13.1101 0.104947C8.46721 0.634857 4.17751 3.5435 1.82346 7.75797C0.963743 9.29703 0.340435 11.2094 0.0758673 13.1195C-0.0252891 13.8499 -0.0252891 16.1424 0.0758673 16.8728C0.694775 21.3409 3.07882 25.136 6.80247 27.5804C11.3573 30.5705 17.3255 30.8075 22.1461 28.1898C22.8882 27.7869 23.0488 27.6576 23.2032 27.3388C23.5781 26.5648 22.9557 25.6174 22.1154 25.6831C21.9533 25.6958 21.7421 25.7473 21.646 25.7975C21.5499 25.8477 21.2205 26.0226 20.9139 26.1862C18.7597 27.3356 16.2126 27.8404 13.7804 27.5999C8.76822 27.1044 4.5227 23.7076 2.96469 18.9466C2.09741 16.2963 2.09735 13.6935 2.96452 11.0457C4.21994 7.21205 7.20692 4.23069 11.0512 2.97424C13.686 2.11305 16.2974 2.11475 18.9402 2.97934C21.8082 3.91753 24.1798 5.79872 25.8124 8.43033C26.7644 9.96481 27.413 11.9172 27.6013 13.8148C27.8695 16.5173 27.1916 19.33 25.6914 21.7402C25.3611 22.2708 25.3446 22.3155 25.3443 22.6785C25.3438 23.1359 25.4938 23.4224 25.8602 23.6648C26.1866 23.8806 26.7607 23.8897 27.0913 23.6842C27.4434 23.4655 28.1613 22.3004 28.7139 21.051C31.464 14.8332 29.7013 7.57482 24.4051 3.30857C22.2715 1.58988 19.8982 0.557212 17.1 0.130047C16.5151 0.0407319 14.3293 -0.0355057 13.8729 0.0174501ZM11.6556 8.54943C11.385 8.63218 11.0168 9.01923 10.941 9.30049C10.8978 9.461 10.8831 11.2647 10.8939 15.0654L10.9098 20.5967L11.049 20.8205C11.1256 20.9437 11.2953 21.1152 11.4261 21.2017C11.6242 21.3328 11.7291 21.359 12.0539 21.359C12.3788 21.359 12.4836 21.3328 12.6818 21.2017C12.8125 21.1152 12.9823 20.9437 13.0589 20.8205L13.1981 20.5967V14.9375V9.27832L13.0589 9.05448C12.7821 8.6096 12.1742 8.3908 11.6556 8.54943ZM17.5231 8.54943C17.2526 8.63218 16.8843 9.01923 16.8086 9.30049C16.7653 9.461 16.7506 11.2647 16.7615 15.0654L16.7773 20.5967L16.9165 20.8205C16.9931 20.9437 17.1628 21.1152 17.2936 21.2017C17.4918 21.3328 17.5966 21.359 17.9215 21.359C18.2463 21.359 18.3511 21.3328 18.5493 21.2017C18.6801 21.1152 18.8498 20.9437 18.9264 20.8205L19.0656 20.5967V14.9375V9.27832L18.9264 9.05448C18.6497 8.6096 18.0417 8.3908 17.5231 8.54943Z" fill="#06FF79"/>
</svg>

<svg width="30" height="30" fill="none" xmlns="http://www.w3.org/2000/svg"><path fill-rule="evenodd" clip-rule="evenodd" d="M13.873.017l-.763.088C8.467.635 4.178 3.543 1.823 7.758.963 9.297.34 11.209.076 13.12c-.101.73-.101 3.022 0 3.753.619 4.468 3.003 8.263 6.726 10.707 4.555 2.99 10.524 3.228 15.344.61.742-.403.903-.532 1.057-.851.375-.774-.247-1.722-1.088-1.656a1.493 1.493 0 00-.469.114c-.096.05-.425.226-.732.39A12.703 12.703 0 0113.78 27.6c-5.012-.496-9.257-3.892-10.815-8.653-.868-2.65-.868-5.253 0-7.901a12.597 12.597 0 018.086-8.072c2.635-.861 5.246-.86 7.89.005 2.867.939 5.239 2.82 6.871 5.451.952 1.535 1.601 3.487 1.79 5.385.267 2.702-.41 5.515-1.91 7.925-.33.53-.347.576-.348.939 0 .457.15.743.516.986.327.216.9.225 1.231.02.352-.22 1.07-1.385 1.623-2.634a14.973 14.973 0 00-4.309-17.742C22.271 1.589 19.898.557 17.1.13c-.585-.09-2.77-.166-3.227-.113zM11.656 8.55c-.271.083-.64.47-.715.751-.043.161-.058 1.965-.047 5.765l.016 5.532.139.223c.077.124.246.295.377.382.198.13.303.157.628.157s.43-.026.628-.157c.13-.087.3-.258.377-.382l.14-.223V9.278l-.14-.224c-.277-.444-.885-.663-1.403-.505zm5.867 0c-.27.083-.639.47-.714.751-.044.161-.058 1.965-.047 5.765l.015 5.532.14.223c.076.124.246.295.377.382.198.13.303.157.628.157.324 0 .43-.026.627-.157.131-.087.3-.258.377-.382l.14-.223V9.278l-.14-.224c-.276-.444-.884-.663-1.403-.505z" fill="#06FF79"/></svg>
